X: 21083
T: Kadril Van Mechelen
R: jig
M: 6/8
K: Aminor
a ^g2a||"Am" e2d c2d|e2A B2c|"Dm"d2c BcA|
"E" e2a ^g2a|"Am" e2d c2d|e2A B2c|"Dm"dfe "E"dcB|"Am" A2 c cBc||
"G" d2g g^fg|"C"e2c cBc|"F"agf edc|"G" B2c cBc|
"G" d2g g^fg|"C"e2gc2e|"Dm"dfe "E"dcB|"Am" A2EA2B||
K:A
|:"A" c2> B2cB|"F#m" A2 A B2 c|"D" d2 c B2 A|"E" G2 E A2 B|
"A" c2> B2cB|"F#m" A2 A B2 c|"D" dfe "E" dcB|1 "A" A2 E A2 B:|2 "A" A2||

